src/assets/icons/letters,simple,serif-t.svg

<svg width="48" height="48" viewBox="0 0 48 48" fill="none" xmlns="http://www.w3.org/2000/svg">
<rect opacity="0.2" x="5" y="5" width="38" height="38" rx="4" fill="black"/>
<path d="M36.0428 19.5H34.7528C34.6928 18.52 34.5428 17.71 34.3028 17.07C34.0828 16.41 33.7628 15.89 33.3428 15.51C32.9228 15.11 32.4128 14.84 31.8128 14.7C31.2128 14.54 30.5128 14.46 29.7128 14.46C28.9328 14.46 28.3028 14.48 27.8228 14.52C27.3628 14.54 27.0028 14.59 26.7428 14.67C26.5028 14.73 26.3428 14.82 26.2628 14.94C26.1828 15.06 26.1428 15.21 26.1428 15.39V31.11C26.1428 31.75 26.1828 32.3 26.2628 32.76C26.3628 33.22 26.5528 33.6 26.8328 33.9C27.1128 34.18 27.5228 34.4 28.0628 34.56C28.6028 34.7 29.3128 34.78 30.1928 34.8V36H17.6228V34.8C18.5228 34.78 19.2428 34.7 19.7828 34.56C20.3228 34.4 20.7328 34.18 21.0128 33.9C21.3128 33.6 21.5028 33.22 21.5828 32.76C21.6828 32.3 21.7328 31.75 21.7328 31.11V15.39C21.7328 15.21 21.6928 15.06 21.6128 14.94C21.5528 14.82 21.4128 14.73 21.1928 14.67C20.9728 14.59 20.6528 14.54 20.2328 14.52C19.8328 14.48 19.3028 14.46 18.6428 14.46C17.9228 14.46 17.2328 14.5 16.5728 14.58C15.9128 14.64 15.3328 14.84 14.8328 15.18C14.3328 15.5 13.9228 16 13.6028 16.68C13.3028 17.34 13.1428 18.28 13.1228 19.5H11.9528L12.2528 12.9H35.7428L36.0428 19.5Z" fill="black"/>
</svg>

<svg xmlns="http://www.w3.org/2000/svg" width="48" height="48" fill="none" viewBox="0 0 48 48">
  <rect width="38" height="38" x="5" y="5" fill="#000" opacity=".2" rx="4"/>
  <path fill="#000" d="M36.043 19.5h-1.29c-.06-.98-.21-1.79-.45-2.43-.22-.66-.54-1.18-.96-1.56-.42-.4-.93-.67-1.53-.81-.6-.16-1.3-.24-2.1-.24-.78 0-1.41.02-1.89.06-.46.02-.82.07-1.08.15-.24.06-.4.15-.48.27-.08.12-.12.27-.12.45v15.72c0 .64.04 1.19.12 1.65.1.46.29.84.57 1.14.28.28.69.5 1.23.66.54.14 1.25.22 2.13.24V36h-12.57v-1.2c.9-.02 1.62-.1 2.16-.24.54-.16.95-.38 1.23-.66.3-.3.49-.68.57-1.14.1-.46.15-1.01.15-1.65V15.39c0-.18-.04-.33-.12-.45-.06-.12-.2-.21-.42-.27-.22-.08-.54-.13-.96-.15-.4-.04-.93-.06-1.59-.06-.72 0-1.41.04-2.07.12-.66.06-1.24.26-1.74.6-.5.32-.91.82-1.23 1.5-.3.66-.46 1.6-.48 2.82h-1.17l.3-6.6h23.49l.3 6.6z"/>
</svg>
